X:5350
T:Schottis
C:e. Tolv Manne
D:Drngkamarltar (Simon & Olle Simonsson, Kjell-Erik Eriksson)
M:3/4
N:"the Tandberger"
O:Sweden
R:Schottis
Z:Richard Robinson 
%%TUNEURL: http://www.leeds.ac.uk/music/Info/RRTuneBk/gettune/00000c55.html
%%ID:00000c55
K:D
GB|\
d2 Ac e2 GB| d>e dB GB dg | f2 fe d2 ef | g2 fe dB GB|\
d2 Ac e2 GB| d>e dB GB dg | f2 fe d2 ef | g2 ~g2 g2 :: \
df|\
a2 df a2 df | a2 {b}af d4 | =c>B ce g2 fe | d>e dB G2 df |\
a2 df a2 df | a2 {b}af d4 | =c>B ce g2 fe | d>e dB G2 GB |\
d2 Ac e2 GB| d>e dB GB dg | f2 fe d2 ef | g2 ~g2 g2 :: \
gf|\
e2 =c2 cB cd | cB G2 G3B| =cA F2 F3B| dB G2  G3 g|\
e2 =c2 cB cd | cB G2 G3B| =c2 A2 fdfa | g2 ~g2 g2:|
